X:1
T:Title
%%score { ( 1 3 ) | ( 2 4 ) }
L:1/8
M:4/4
K:D
V:1 treble nm="Grand Piano"
V:3 treble 
V:2 bass 
V:4 bass 
V:1
 z4 z2[Q:1/4=94] D>E | F2 F>E E<D D>F | [FA]2 [GB]2 [FA]2 D>E | F2 F>E E<D [FA]>[Fd] | %4
 [Ec]2 [DB]2 [CA]2 D>E | F2 F>E E<D D>F |[M:3/4] [FA]2 [GB]2 [FA]2 |[M:1/4] B>c | %8
[M:4/4] d2 d>B [DFA]<[A,DF][K:bass] [F,D]>[G,DE] |[M:3/4][K:treble] [A,DF]2 [G,CE]2 [F,D]2 | %10
[M:1/4] A>A |[M:4/4] d6 z2 | A6 z2 | d2 d>e d<B A>F | [^G,DE]2 [G,D]2 [A,CE]2 A>A | d6 z2 | A6 z2 | %17
 [DGB]2 [E^Ge]>[EGd] [E=Gd]<[EGc] [DGB]>[EGc] |[M:3/4] d6 |] %19
V:2
 z4 z2 [D,F,]>[D,G,D] | [D,A,D]2 [D,A,D]>[D,G,D] [D,G,D]<[D,F,] [D,F,]>[D,A,D] | %2
 [D,D]2 [D,D]2 [D,D]2 [D,F,]>[D,G,D] | [D,A,D]2 [D,A,D]>[D,G,D] [D,G,D]<[D,F,] [D,D]>[D,A,] | %4
 [E,A,]2 [E,^G,]2 [A,,A,]2 [D,F,]>[D,=G,D] | %5
 [D,A,D]2 [D,A,D]>[D,G,D] [D,G,D]<[D,F,] [D,F,]>[D,A,D] |[M:3/4] [D,D]2 [D,D]2 [D,D]2 | %7
[M:1/4][K:treble] [G,DG]>[G,CG] |[M:4/4] [G,B,G]2 [G,B,G]>[G,DG][K:bass] D,<D, D,>D, | %9
[M:3/4] A,,2 A,,2 D,2 |[M:1/4][K:treble] F>F |[M:4/4] F6[K:bass][K:treble] z2 | F6[K:bass] z2 | %13
 D2 D>E D<B,[K:bass] A,>F, | B,,2 B,,2 A,,2[K:treble] G>G | F6[K:bass][K:treble] z2 | %16
 F6[K:bass] z2 | G,2 E,>E, A,<A, A,>A, |[M:3/4] z2 B,>B, A,2 |] %19
V:3
 x8 | x8 | x8 | x8 | x8 | x8 |[M:3/4] x6 |[M:1/4] x2 |[M:4/4] x6[K:bass] x2 |[M:3/4][K:treble] x6 | %10
[M:1/4] x2 |[M:4/4] z2 A,>A, A,2 c>B | z2 D>D D2 A>A | x8 | x8 | z2 A,>A, A,2 c>B | %16
 z2 D>D D2 [DFA]>[DFA] | x8 |[M:3/4] [DF]2 G>G F2 |] %19
V:4
 x8 | x8 | x8 | x8 | x8 | x8 |[M:3/4] x6 |[M:1/4][K:treble] x2 |[M:4/4] x4[K:bass] x4 |[M:3/4] x6 | %10
[M:1/4][K:treble] x2 |[M:4/4] z2[K:bass] D,>D, D,2[K:treble] A>G | z2[K:bass] D,>D, D,2 A,>A, | %13
 x6[K:bass] x2 | x6[K:treble] x2 | z2[K:bass] D,>D, D,2[K:treble] A>G | %16
 z2[K:bass] D,>D, D,2 D,>D, | x8 |[M:3/4] D,6 |] %19

